Newaita-dark/apps/48/deluge.svg

<svg height="48pt" viewBox="0 0 48 48" width="48pt" xmlns="http://www.w3.org/2000/svg" xmlns:xlink="http://www.w3.org/1999/xlink"><linearGradient id="a"><stop offset="0" stop-opacity=".313726"/><stop offset=".222222" stop-opacity=".27451"/><stop offset="1" stop-opacity="0"/></linearGradient><radialGradient id="b" cx="450.908936" cy="189.579361" gradientTransform="matrix(.00000026 -.117199 -.210958 -.00000015 66.784728 95.392994)" gradientUnits="userSpaceOnUse" r="21.166656" xlink:href="#a"/><radialGradient id="c" cx="450.908936" cy="189.579361" gradientTransform="matrix(-.00000026 .117199 .210958 .00000015 -19.155178 -11.291223)" gradientUnits="userSpaceOnUse" r="21.166656" xlink:href="#a"/><radialGradient id="d" cx="450.908936" cy="189.579361" gradientTransform="matrix(-.00000026 -.117199 .210958 -.00000015 -19.155178 95.392994)" gradientUnits="userSpaceOnUse" r="21.166656" xlink:href="#a"/><radialGradient id="e" cx="450.908936" cy="189.579361" gradientTransform="matrix(.00000026 .117199 -.210958 .00000015 66.784725 -11.291224)" gradientUnits="userSpaceOnUse" r="21.166656" xlink:href="#a"/><linearGradient id="f" gradientTransform="matrix(.0200401 0 0 .093759 18.698079 20.158175)" gradientUnits="userSpaceOnUse" x1="255.323059" x2="255.323044" y1="233.5" y2="254.666656"><stop offset="0" stop-opacity=".27451"/><stop offset="1" stop-opacity="0"/></linearGradient><linearGradient id="g" gradientUnits="userSpaceOnUse" x1="23.814816" x2="23.814816" y1="42.05096580616" y2="4.34417266504"><stop offset="0" stop-color="#1e88e5"/><stop offset="1" stop-color="#2196f3"/></linearGradient><path d="m27.289062 42.050781h3.96875v-1.984375h-3.96875zm0 0" fill="url(#b)"/><path d="m20.339844 42.050781h-3.96875v1.984375h3.96875zm0 0" fill="url(#c)"/><path d="m20.339844 42.050781h-3.96875v-1.984375h3.96875zm0 0" fill="url(#d)"/><path d="m27.289062 42.050781h3.96875v1.984375h-3.96875zm0 0" fill="url(#e)"/><path d="m20.339844 41.554688h6.949218v2.480468h-6.949218zm0 0" fill="url(#f)"/><path d="m9.921875 30.144531c0 6.59375 6.195313 11.90625 13.894531 11.90625 7.695313 0 13.890625-5.3125 13.890625-11.90625 0-8.929687-8.929687-17.863281-13.890625-25.800781-4.964844 7.9375-13.894531 16.871094-13.894531 25.800781zm0 0" fill="url(#g)"/><path d="m16 23.707031.085938.023438c.789062.226562 1.0625 1.75.609374 3.410156-.453124 1.660156-1.457031 2.820313-2.246093 2.597656l-.085938-.023437c-.789062-.226563-1.0625-1.753906-.609375-3.410156.453125-1.660157 1.457032-2.820313 2.246094-2.597657zm0 0" fill="#fff" fill-opacity=".392157"/><path d="m23.816406 4.34375c-4.964844 7.9375-13.894531 16.871094-13.894531 25.800781 0 .15625.003906.3125.011719.46875.335937-8.757812 9.015625-17.492187 13.882812-25.277343 4.863282 7.785156 13.542969 16.519531 13.878906 25.277343.007813-.15625.011719-.3125.011719-.46875 0-8.929687-8.929687-17.863281-13.890625-25.800781zm0 0" fill="#fff" fill-opacity=".392157"/><path d="m9.925781 29.875c0 .089844-.003906.179688-.003906.269531 0 6.59375 6.195313 11.90625 13.894531 11.90625 7.695313 0 13.890625-5.3125 13.890625-11.90625 0-.089843 0-.179687-.003906-.269531-.148437 6.484375-6.285156 11.667969-13.886719 11.667969-7.605468 0-13.742187-5.183594-13.890625-11.667969zm0 0" fill-opacity=".235294"/><path d="m23.816406 4.078125-.121094.191406c-2.472656 3.957031-5.945312 8.175781-8.804687 12.523438-2.859375 4.351562-5.109375 8.839843-5.109375 13.351562 0 6.683594 6.273438 12.046875 14.035156 12.046875 7.757813 0 14.03125-5.363281 14.03125-12.046875 0-4.511719-2.25-9-5.109375-13.351562-2.859375-4.347657-6.332031-8.566407-8.804687-12.523438zm0 .527344c2.476563 3.925781 5.882813 8.078125 8.6875 12.34375 2.847656 4.332031 5.0625 8.777343 5.0625 13.195312 0 6.507813-6.121094 11.765625-13.75 11.765625-7.632812 0-13.753906-5.257812-13.753906-11.765625 0-4.417969 2.214844-8.863281 5.0625-13.195312 2.804688-4.265625 6.210938-8.417969 8.691406-12.34375zm0 0" fill="#212121"/></svg>

<?xml version="1.0" encoding="UTF-8"?>
<svg xmlns="http://www.w3.org/2000/svg" xmlns:xlink="http://www.w3.org/1999/xlink" width="48pt" height="48pt" viewBox="0 0 48 48" version="1.1">
<defs>
<radialGradient id="radial0" gradientUnits="userSpaceOnUse" cx="450.908936" cy="189.579361" fx="450.908936" fy="189.579361" r="21.166656" gradientTransform="matrix(0.000000261256,-0.117199,-0.210958,-0.000000152308,66.784728,95.392994)">
<stop offset="0" style="stop-color:rgb(0%,0%,0%);stop-opacity:0.313726;"/>
<stop offset="0.222222" style="stop-color:rgb(0%,0%,0%);stop-opacity:0.27451;"/>
<stop offset="1" style="stop-color:rgb(0%,0%,0%);stop-opacity:0;"/>
</radialGradient>
<radialGradient id="radial1" gradientUnits="userSpaceOnUse" cx="450.908936" cy="189.579361" fx="450.908936" fy="189.579361" r="21.166656" gradientTransform="matrix(-0.000000261256,0.117199,0.210958,0.000000152308,-19.155178,-11.291223)">
<stop offset="0" style="stop-color:rgb(0%,0%,0%);stop-opacity:0.313726;"/>
<stop offset="0.222222" style="stop-color:rgb(0%,0%,0%);stop-opacity:0.27451;"/>
<stop offset="1" style="stop-color:rgb(0%,0%,0%);stop-opacity:0;"/>
</radialGradient>
<radialGradient id="radial2" gradientUnits="userSpaceOnUse" cx="450.908936" cy="189.579361" fx="450.908936" fy="189.579361" r="21.166656" gradientTransform="matrix(-0.000000261256,-0.117199,0.210958,-0.000000152308,-19.155178,95.392994)">
<stop offset="0" style="stop-color:rgb(0%,0%,0%);stop-opacity:0.313726;"/>
<stop offset="0.222222" style="stop-color:rgb(0%,0%,0%);stop-opacity:0.27451;"/>
<stop offset="1" style="stop-color:rgb(0%,0%,0%);stop-opacity:0;"/>
</radialGradient>
<radialGradient id="radial3" gradientUnits="userSpaceOnUse" cx="450.908936" cy="189.579361" fx="450.908936" fy="189.579361" r="21.166656" gradientTransform="matrix(0.000000261256,0.117199,-0.210958,0.000000152308,66.784725,-11.291224)">
<stop offset="0" style="stop-color:rgb(0%,0%,0%);stop-opacity:0.313726;"/>
<stop offset="0.222222" style="stop-color:rgb(0%,0%,0%);stop-opacity:0.27451;"/>
<stop offset="1" style="stop-color:rgb(0%,0%,0%);stop-opacity:0;"/>
</radialGradient>
<linearGradient id="linear0" gradientUnits="userSpaceOnUse" x1="255.323059" y1="233.5" x2="255.323044" y2="254.666656" gradientTransform="matrix(0.0200401,0,0,0.093759,18.698079,20.158175)">
<stop offset="0" style="stop-color:rgb(0%,0%,0%);stop-opacity:0.27451;"/>
<stop offset="1" style="stop-color:rgb(0%,0%,0%);stop-opacity:0;"/>
</linearGradient>
<linearGradient id="linear1" gradientUnits="userSpaceOnUse" x1="960" y1="1695.118164" x2="960" y2="175.118118" gradientTransform="matrix(0.0248071,0,0,0.0248071,0,0.00000000000000282)">
<stop offset="0" style="stop-color:rgb(11.764706%,53.333336%,89.803922%);stop-opacity:1;"/>
<stop offset="1" style="stop-color:rgb(12.941177%,58.823532%,95.294118%);stop-opacity:1;"/>
</linearGradient>
</defs>
<g id="surface1">
<path style=" stroke:none;fill-rule:nonzero;fill:url(#radial0);" d="M 27.289062 42.050781 L 31.257812 42.050781 L 31.257812 40.066406 L 27.289062 40.066406 Z M 27.289062 42.050781 "/>
<path style=" stroke:none;fill-rule:nonzero;fill:url(#radial1);" d="M 20.339844 42.050781 L 16.371094 42.050781 L 16.371094 44.035156 L 20.339844 44.035156 Z M 20.339844 42.050781 "/>
<path style=" stroke:none;fill-rule:nonzero;fill:url(#radial2);" d="M 20.339844 42.050781 L 16.371094 42.050781 L 16.371094 40.066406 L 20.339844 40.066406 Z M 20.339844 42.050781 "/>
<path style=" stroke:none;fill-rule:nonzero;fill:url(#radial3);" d="M 27.289062 42.050781 L 31.257812 42.050781 L 31.257812 44.035156 L 27.289062 44.035156 Z M 27.289062 42.050781 "/>
<path style=" stroke:none;fill-rule:nonzero;fill:url(#linear0);" d="M 20.339844 41.554688 L 27.289062 41.554688 L 27.289062 44.035156 L 20.339844 44.035156 Z M 20.339844 41.554688 "/>
<path style=" stroke:none;fill-rule:nonzero;fill:url(#linear1);" d="M 9.921875 30.144531 C 9.921875 36.738281 16.117188 42.050781 23.816406 42.050781 C 31.511719 42.050781 37.707031 36.738281 37.707031 30.144531 C 37.707031 21.214844 28.777344 12.28125 23.816406 4.34375 C 18.851562 12.28125 9.921875 21.214844 9.921875 30.144531 Z M 9.921875 30.144531 "/>
<path style=" stroke:none;fill-rule:nonzero;fill:rgb(100%,100%,100%);fill-opacity:0.392157;" d="M 16 23.707031 L 16.085938 23.730469 C 16.875 23.957031 17.148438 25.480469 16.695312 27.140625 C 16.242188 28.800781 15.238281 29.960938 14.449219 29.738281 L 14.363281 29.714844 C 13.574219 29.488281 13.300781 27.960938 13.753906 26.304688 C 14.207031 24.644531 15.210938 23.484375 16 23.707031 Z M 16 23.707031 "/>
<path style=" stroke:none;fill-rule:nonzero;fill:rgb(100%,100%,100%);fill-opacity:0.392157;" d="M 23.816406 4.34375 C 18.851562 12.28125 9.921875 21.214844 9.921875 30.144531 C 9.921875 30.300781 9.925781 30.457031 9.933594 30.613281 C 10.269531 21.855469 18.949219 13.121094 23.816406 5.335938 C 28.679688 13.121094 37.359375 21.855469 37.695312 30.613281 C 37.703125 30.457031 37.707031 30.300781 37.707031 30.144531 C 37.707031 21.214844 28.777344 12.28125 23.816406 4.34375 Z M 23.816406 4.34375 "/>
<path style=" stroke:none;fill-rule:nonzero;fill:rgb(0%,0%,0%);fill-opacity:0.235294;" d="M 9.925781 29.875 C 9.925781 29.964844 9.921875 30.054688 9.921875 30.144531 C 9.921875 36.738281 16.117188 42.050781 23.816406 42.050781 C 31.511719 42.050781 37.707031 36.738281 37.707031 30.144531 C 37.707031 30.054688 37.707031 29.964844 37.703125 29.875 C 37.554688 36.359375 31.417969 41.542969 23.816406 41.542969 C 16.210938 41.542969 10.074219 36.359375 9.925781 29.875 Z M 9.925781 29.875 "/>
<path style=" stroke:none;fill-rule:nonzero;fill:rgb(12.941177%,12.941177%,12.941177%);fill-opacity:1;" d="M 23.816406 4.078125 L 23.695312 4.269531 C 21.222656 8.226562 17.75 12.445312 14.890625 16.792969 C 12.03125 21.144531 9.78125 25.632812 9.78125 30.144531 C 9.78125 36.828125 16.054688 42.191406 23.816406 42.191406 C 31.574219 42.191406 37.847656 36.828125 37.847656 30.144531 C 37.847656 25.632812 35.597656 21.144531 32.738281 16.792969 C 29.878906 12.445312 26.40625 8.226562 23.933594 4.269531 Z M 23.816406 4.605469 C 26.292969 8.53125 29.699219 12.683594 32.503906 16.949219 C 35.351562 21.28125 37.566406 25.726562 37.566406 30.144531 C 37.566406 36.652344 31.445312 41.910156 23.816406 41.910156 C 16.183594 41.910156 10.0625 36.652344 10.0625 30.144531 C 10.0625 25.726562 12.277344 21.28125 15.125 16.949219 C 17.929688 12.683594 21.335938 8.53125 23.816406 4.605469 Z M 23.816406 4.605469 "/>
</g>
</svg>
